images/crypto-stripe-bottom.svg

<svg width="459" height="383" viewBox="0 0 459 383" fill="none" xmlns="http://www.w3.org/2000/svg">
<path d="M172.212 28.6143C176.998 32.9578 171.035 34.1732 169.633 39.282C169.006 41.545 171.571 48.8118 168.676 50.6106C164.533 53.2641 158.039 51.364 153.104 53.5184C149.567 55.0077 148.002 60.636 149.514 63.6035C150.859 66.2478 155.341 68.0809 153.821 71.8927C152.169 76.0366 144.829 77.1397 141.378 79.0766C135.358 82.4531 134.629 84.6517 133.926 89.9264C133.486 93.2365 126.087 95.983 122.928 98.3592C117.707 102.285 117.635 108.251 120.88 112.699C122.713 115.211 126.149 117.427 128.59 119.742C131.031 122.058 132.404 124.929 134.127 127.482C137.027 131.776 134.156 138.385 150.667 142.121C147.442 146.995 142.264 149.908 137.861 154.24C133.214 158.819 143.838 167.682 146.81 171.686C151.916 178.563 156.53 186.012 155.999 193.63C155.587 199.626 147.269 206.362 141.397 210.869C137.411 213.956 133.065 216.882 128.39 219.628C124.331 221.971 119.134 223.457 115.028 225.767C110.697 228.201 106.844 233.41 101.623 234.988C96.4019 236.565 87.4142 237.698 83.8871 240.597C79.0057 244.597 79.4651 250.886 80.9965 255.423C82.3557 259.441 77.4455 261.745 73.8514 265.202C69.9271 268.976 51.9536 275.397 53.963 283.88C56.0258 292.589 70.4337 292.135 74.7811 298.387C76.7241 301.194 69.2196 305.443 67.6025 310.268C64.367 319.92 79.0691 323.016 74.3025 331.267C70.9525 337.069 54.456 341.117 57.313 347.154C58.1506 348.926 63.8013 357.935 61.9301 359.015C59.1687 360.61 60.5661 361.798 59.3601 363.881C57.2831 367.484 50.942 367.863 46.2759 370.557C41.2556 373.455 31.2008 377.94 27.779 381.236C31.9952 378.802 31.8373 365.216 36.0344 362.793C41.8922 359.411 27.9656 352.768 33.876 349.356C45.4144 342.694 55.7326 334.178 59.6377 324.839C62.356 318.296 53.5885 309.068 50.4921 302.876C46.965 295.816 40.1023 291.351 41.9831 283.827C42.6818 281.009 41.7007 278.238 42.5382 275.306C43.883 270.661 46.2807 266.111 47.4149 261.438C48.1471 258.473 47.5968 255.52 49.3675 252.619C51.0186 249.88 54.2729 247.576 57.0678 245.205C64.1699 239.265 69.214 231.716 78.5845 226.809C83.3511 224.311 90.1565 222.891 94.2339 220.039C98.0482 217.351 101.403 214.475 105.629 211.98C110.539 209.084 124.772 203.69 121.761 198.493C118.995 193.697 109.462 191.779 105.514 187.35C103.092 184.636 98.1055 180.31 99.9288 177.085C101.116 174.98 106.198 169.514 106.677 171.708C107.155 173.902 114.138 176.883 114.138 173.192C114.138 170.981 110.716 169.641 109.165 167.862C106.624 164.975 106.945 162.104 107.72 158.965C109.027 153.674 112.956 148.283 116.387 143.395C118.732 140.057 119.775 135.957 119.957 132.343C120.11 129.375 120.756 125.886 119.517 122.96C98.7985 120.127 97.5399 116.703 97.961 113.255C98.8033 106.397 103.809 100.13 102.096 93.2116C100.306 85.9835 101.699 81.9301 107.92 74.9119C113.05 69.0985 113.052 68.1985 119.125 62.6365C122.02 59.9812 123.474 51.1829 127.106 48.8481C131.217 46.2039 136.678 44.4272 141.435 42.2002C145.512 40.2827 154.241 37.9506 151.26 34.2067C148.005 30.1174 146.618 26.4259 147.809 22.0188C148.46 19.6316 155.659 16.2656 157.324 14.2264C181.681 6.32553 176.555 5.72654 176.555 3.12374C176.555 -2.62341 175.196 -8.44238 174.229 -14.1619C173.463 -18.6933 167.653 -22.2466 165.72 -26.7117C164.174 -30.2899 169.113 -32.4892 175.105 -29.0299C180.723 -25.7861 181.805 -22.2052 184.169 -17.9556C186.969 -12.9406 188.462 -9.25471 187.366 -3.95241C186.37 0.943714 192.8 6.38059 170.568 16.6688C170.707 21.2195 161.578 20.0101 165.024 23.9834" fill="#F4F2FF" fill-opacity="0.05"/>
<path d="M100.146 343.121C94.6223 350.986 83.8618 357.333 72.7895 362.807L75.1319 363.948C85.0736 364.795 84.6446 361.898 93.0509 360.055C100.173 358.494 96.8262 352.151 101.513 348.944C110.712 342.649 117.009 336.024 123.148 328.345C126.209 324.517 128.753 319.515 128.241 315.307C127.939 312.818 128.287 308.526 129.558 306.173C134.199 297.581 140.738 293.797 150.821 286.897C156.775 282.822 165.405 280.403 168.32 275.227C171.125 270.245 177.888 259.382 178.183 254.147C178.321 251.708 180.54 250.095 183.201 248.274C188.919 244.361 195.185 241.093 199.986 236.686C206.403 230.795 220.124 226.727 224.147 220.202C227.326 215.049 228.437 209.056 228.392 203.578C228.333 196.481 225.651 189.304 224.612 182.23C224.134 178.977 222.218 174.411 224.618 171.301C228.231 166.618 233.245 162.422 236.252 157.547C239.96 151.532 238.996 147.074 239.006 140.925C239.016 134.442 225.008 127.428 231.156 121.753C234.573 118.599 234.886 114.956 235.306 111.342C235.738 107.625 228.268 105.516 224.533 102.526C217.736 97.0879 225.424 94.6454 223.721 89.7506C221.011 81.9639 208.825 78.8531 208.171 71.5015C207.595 65.0173 196.043 56.4273 196.214 49.8779C196.453 40.7403 228.872 36.7015 228.877 27.5258C228.879 23.4108 227.7 18.9578 222.379 15.9149C219.269 14.1364 216.72 12.5961 214.596 10.3663C211.758 7.38685 209.968 3.53342 209.498 0.337832C198.811 7.65177 203.619 16.947 196.276 24.9361C192.347 29.2104 187.339 33.1937 183.543 37.5117C179.498 42.1118 181.473 44.902 185.566 49.644C190.029 53.2154 191.845 56.6738 193.76 61.009C195.066 63.9665 194.604 66.7472 196.481 69.6656C198.485 72.7815 208.363 79.8886 210.012 83.0733C215.553 93.7705 203.68 99.5264 219.76 112.173C221.83 114.383 224.991 116.402 225.473 118.985C225.956 121.57 224.789 124.048 224.093 126.587C221.831 134.836 215.831 142.516 212.438 150.62C209.649 157.282 204.3 162.62 197.111 168.02L196.899 168.179C191.92 171.918 184.517 177.476 184.766 182.414C184.895 184.982 182.873 187.354 182.725 189.908C182.467 194.348 183.757 198.744 183.311 203.227C182.457 211.821 181.468 220.524 179.167 229.032C177.386 235.615 174.082 243.133 165.473 247.956C163.243 249.205 161.203 249.593 161.462 251.361C161.695 252.947 160.65 254.845 159.688 256.285C155.464 262.607 150.897 268.826 147.295 275.285C145.492 278.518 136.467 283.715 134.419 286.903C130.549 292.931 131.504 297.626 124.413 302.479C115.93 308.284 104.463 310.45 102.543 318.309C101.466 322.718 102.627 326.729 103.498 331.121C104.464 335.986 103.272 338.669 100.146 343.121Z" fill="#F4F2FF" fill-opacity="0.05"/>
</svg>

<svg xmlns="http://www.w3.org/2000/svg" width="459" height="383" fill="none"><path fill="#F4F2FF" fill-opacity=".05" d="M172.212 28.614c4.786 4.344-1.177 5.56-2.579 10.668-.627 2.263 1.938 9.53-.957 11.329-4.143 2.653-10.637.753-15.572 2.907-3.537 1.49-5.102 7.118-3.59 10.085 1.345 2.645 5.827 4.478 4.307 8.29-1.652 4.144-8.992 5.247-12.443 7.184-6.02 3.376-6.749 5.575-7.452 10.85-.44 3.31-7.839 6.056-10.998 8.432-5.221 3.926-5.293 9.892-2.048 14.34 1.833 2.512 5.269 4.728 7.71 7.043 2.441 2.316 3.814 5.187 5.537 7.74 2.9 4.294.029 10.903 16.54 14.639-3.225 4.874-8.403 7.787-12.806 12.119-4.647 4.579 5.977 13.442 8.949 17.446 5.106 6.877 9.72 14.326 9.189 21.944-.412 5.996-8.73 12.732-14.602 17.239-3.986 3.087-8.332 6.013-13.007 8.759-4.059 2.343-9.256 3.829-13.362 6.139-4.331 2.434-8.184 7.643-13.405 9.221-5.221 1.577-14.209 2.71-17.736 5.609-4.881 4-4.422 10.289-2.89 14.826 1.359 4.018-3.552 6.322-7.146 9.779-3.924 3.774-21.897 10.195-19.888 18.678 2.063 8.709 16.47 8.255 20.818 14.507 1.943 2.807-5.561 7.056-7.178 11.881-3.236 9.652 11.466 12.748 6.7 20.999-3.35 5.802-19.847 9.85-16.99 15.887.838 1.772 6.488 10.781 4.617 11.861-2.761 1.595-1.364 2.783-2.57 4.866-2.077 3.603-8.418 3.982-13.084 6.676-5.02 2.898-15.075 7.383-18.497 10.679 4.216-2.434 4.058-16.02 8.255-18.443 5.858-3.382-8.068-10.025-2.158-13.437 11.538-6.662 21.857-15.178 25.762-24.517 2.718-6.543-6.05-15.771-9.146-21.963-3.527-7.06-10.39-11.525-8.509-19.049.699-2.818-.282-5.589.555-8.521 1.345-4.645 3.743-9.195 4.877-13.868.732-2.965.182-5.918 1.953-8.819 1.65-2.739 4.905-5.043 7.7-7.414 7.102-5.94 12.146-13.489 21.517-18.396 4.766-2.498 11.572-3.918 15.649-6.77 3.814-2.688 7.169-5.564 11.395-8.059 4.91-2.896 19.143-8.29 16.132-13.487-2.766-4.796-12.299-6.714-16.247-11.143-2.422-2.714-7.408-7.04-5.585-10.265 1.187-2.105 6.269-7.571 6.748-5.377.478 2.194 7.461 5.175 7.461 1.484 0-2.211-3.422-3.551-4.973-5.33-2.541-2.887-2.22-5.758-1.445-8.897 1.307-5.291 5.236-10.682 8.667-15.57 2.345-3.338 3.388-7.438 3.57-11.052.153-2.968.799-6.457-.44-9.383-20.718-2.833-21.977-6.257-21.556-9.705.842-6.858 5.848-13.125 4.135-20.043-1.79-7.228-.397-11.282 5.824-18.3 5.13-5.814 5.132-6.714 11.205-12.276 2.895-2.655 4.349-11.453 7.981-13.788 4.111-2.644 9.572-4.42 14.329-6.648 4.077-1.917 12.806-4.25 9.825-7.993-3.255-4.09-4.642-7.781-3.451-12.188.651-2.387 7.85-5.753 9.515-7.793 24.357-7.9 19.231-8.5 19.231-11.102 0-5.747-1.359-11.566-2.326-17.286-.766-4.531-6.576-8.085-8.509-12.55-1.546-3.578 3.393-5.777 9.385-2.318 5.618 3.244 6.7 6.825 9.064 11.074 2.8 5.015 4.293 8.701 3.197 14.004-.996 4.896 5.434 10.333-16.798 20.62.139 4.552-8.99 3.342-5.544 7.315"/><path fill="#F4F2FF" fill-opacity=".05" d="M100.146 343.121c-5.524 7.865-16.284 14.212-27.356 19.686l2.342 1.141c9.942.847 9.513-2.05 17.919-3.893 7.122-1.561 3.775-7.904 8.462-11.111 9.199-6.295 15.496-12.92 21.635-20.599 3.061-3.828 5.605-8.83 5.093-13.038-.302-2.489.046-6.781 1.317-9.134 4.641-8.592 11.18-12.376 21.263-19.276 5.954-4.075 14.584-6.494 17.499-11.67 2.805-4.982 9.568-15.845 9.863-21.08.138-2.439 2.357-4.052 5.018-5.873 5.718-3.913 11.984-7.181 16.785-11.588 6.417-5.891 20.138-9.959 24.161-16.484 3.179-5.153 4.29-11.146 4.245-16.624-.059-7.097-2.741-14.274-3.78-21.348-.478-3.253-2.394-7.819.006-10.929 3.613-4.683 8.627-8.879 11.634-13.754 3.708-6.015 2.744-10.473 2.754-16.622.01-6.483-13.998-13.497-7.85-19.172 3.417-3.154 3.73-6.797 4.15-10.411.432-3.717-7.038-5.826-10.773-8.816-6.797-5.438.891-7.88-.812-12.775-2.71-7.787-14.896-10.898-15.55-18.25-.576-6.484-12.128-15.074-11.957-21.623.239-9.138 32.658-13.176 32.663-22.352.002-4.115-1.177-8.568-6.498-11.611-3.11-1.779-5.659-3.319-7.783-5.549-2.838-2.98-4.628-6.833-5.098-10.028-10.687 7.314-5.879 16.609-13.222 24.598-3.929 4.274-8.937 8.258-12.733 12.576-4.045 4.6-2.07 7.39 2.023 12.132 4.463 3.571 6.279 7.03 8.194 11.365 1.306 2.958.844 5.738 2.721 8.657 2.004 3.115 11.882 10.223 13.531 13.407 5.541 10.698-6.332 16.453 9.748 29.1 2.07 2.21 5.231 4.229 5.713 6.812.483 2.585-.684 5.063-1.38 7.602-2.262 8.249-8.262 15.929-11.655 24.033-2.789 6.662-8.138 12-15.327 17.4l-.212.159c-4.979 3.739-12.382 9.297-12.133 14.235.129 2.568-1.893 4.94-2.041 7.494-.258 4.44 1.032 8.836.586 13.319-.854 8.594-1.843 17.297-4.144 25.805-1.781 6.583-5.085 14.101-13.694 18.924-2.23 1.249-4.27 1.637-4.011 3.405.233 1.586-.812 3.484-1.774 4.924-4.224 6.322-8.791 12.541-12.393 19-1.803 3.233-10.828 8.43-12.876 11.618-3.87 6.028-2.915 10.723-10.006 15.576-8.483 5.805-19.95 7.971-21.87 15.83-1.077 4.409.084 8.42.955 12.812.966 4.865-.226 7.548-3.352 12Z"/></svg>
